img/tetris-page-bg.svg

<?xml version="1.0" encoding="UTF-8" standalone="no"?><!DOCTYPE svg PUBLIC "-//W3C//DTD SVG 1.1//EN" "http://www.w3.org/Graphics/SVG/1.1/DTD/svg11.dtd"><svg width="100%" height="100%" viewBox="0 0 9898 4942" version="1.1" xmlns="http://www.w3.org/2000/svg" xmlns:xlink="http://www.w3.org/1999/xlink" xml:space="preserve" xmlns:serif="http://www.serif.com/" style="fill-rule:evenodd;clip-rule:evenodd;stroke-linecap:round;stroke-linejoin:round;stroke-miterlimit:1.5;"><g><rect x="0" y="0" width="9897.22" height="4941.55" style="fill:#f0f0f0;"/><rect x="0" y="0" width="9897.22" height="4941.55" style="fill:#ffff62;"/><clipPath id="_clip1"><rect x="0" y="0" width="9897.22" height="4941.55"/></clipPath><g clip-path="url(#_clip1)"><path d="M2271.41,5325.04c0,0 177.453,-1615.11 1512.62,-2165.76c1335.16,-550.649 2647.8,-227.512 3093.39,-1604.45c445.589,-1376.94 1600.52,-2204.94 2030.32,-1900.8" style="fill:none;stroke:#000;stroke-width:8.33px;"/><g><path d="M2713.93,5325.04c0,0 177.452,-1615.11 1512.62,-2165.76c1335.16,-550.649 2647.8,-227.512 3093.39,-1604.45c445.59,-1376.94 1600.52,-2204.94 2030.32,-1900.8" style="fill:none;stroke:#fff;stroke-width:8.33px;"/><path d="M-1855.43,4217.32c0,0 177.452,-1615.11 1512.62,-2165.76c1335.16,-550.649 2647.8,-227.512 3093.39,-1604.45c445.59,-1376.94 770.524,-1208.22 1200.33,-904.079" style="fill:none;stroke:#fff;stroke-width:8.33px;"/><path d="M7348.81,6914.22c0,0 177.453,-1615.11 1512.62,-2165.76c1335.16,-550.649 2647.8,-227.511 3093.39,-1604.45c445.59,-1376.94 770.524,-1208.22 1200.33,-904.078" style="fill:none;stroke:#fff;stroke-width:8.33px;"/><path d="M1289.88,5211.89c0,0 -681.893,-1317.07 -34.528,-2112.81c647.366,-795.746 2011.73,-189.904 3281.62,-1348.13c1269.89,-1158.22 583.636,-1763.75 2665.64,-2100.36" style="fill:none;stroke:#fff;stroke-width:8.33px;"/><path d="M6828.84,5465.07c0,0 -792.241,-1503.87 492.311,-2014.1c1261.72,-501.163 2106.75,42.76 2163.51,-2077.06c34.4,-1284.7 2167.68,-2255.09 2709.86,-1903.08" style="fill:none;stroke:#fff;stroke-width:8.33px;"/></g><path d="M-2297.95,4217.32c0,0 177.453,-1615.11 1512.62,-2165.76c1335.16,-550.649 2647.8,-227.512 3093.39,-1604.45c445.589,-1376.94 770.524,-1208.22 1200.33,-904.079" style="fill:none;stroke:#000;stroke-width:8.33px;"/><path d="M6906.29,6914.22c0,0 177.453,-1615.11 1512.62,-2165.76c1335.16,-550.649 2647.8,-227.511 3093.39,-1604.45c445.589,-1376.94 770.524,-1208.22 1200.33,-904.078" style="fill:none;stroke:#000;stroke-width:8.33px;"/><path d="M847.357,5211.89c0,0 -681.893,-1317.07 -34.528,-2112.81c647.366,-795.746 2011.73,-189.904 3281.62,-1348.13c1269.89,-1158.22 583.636,-1763.75 2665.64,-2100.36" style="fill:none;stroke:#000;stroke-width:8.33px;"/><path d="M6386.32,5465.07c0,0 -792.241,-1503.87 492.311,-2014.1c1261.72,-501.163 2106.75,42.76 2163.51,-2077.06c34.4,-1284.7 2167.68,-2255.09 2709.86,-1903.08" style="fill:none;stroke:#000;stroke-width:8.33px;"/></g></g></svg>

<?xml version="1.0" encoding="UTF-8" standalone="no"?>
<!DOCTYPE svg PUBLIC "-//W3C//DTD SVG 1.1//EN" "http://www.w3.org/Graphics/SVG/1.1/DTD/svg11.dtd">
<svg width="100%" height="100%" viewBox="0 0 9898 4942" version="1.1" xmlns="http://www.w3.org/2000/svg" xmlns:xlink="http://www.w3.org/1999/xlink" xml:space="preserve" xmlns:serif="http://www.serif.com/" style="fill-rule:evenodd;clip-rule:evenodd;stroke-linecap:round;stroke-linejoin:round;stroke-miterlimit:1.5;">
    <g>
        <rect x="0" y="0" width="9897.22" height="4941.55" style="fill:rgb(240,240,240);"/>
        <rect x="0" y="0" width="9897.22" height="4941.55" style="fill:rgb(255,255,133);"/>
        <g>
            <path d="M2271.41,5325.04C2271.41,5325.04 2448.86,3709.93 3784.03,3159.28C5119.19,2608.63 6431.83,2931.77 6877.42,1554.83C7323.01,177.89 8477.94,-650.11 8907.74,-345.97" style="fill:none;stroke:black;stroke-width:8.33px;"/>
            <g>
                <path d="M2713.93,5325.04C2713.93,5325.04 2891.38,3709.93 4226.55,3159.28C5561.71,2608.63 6874.35,2931.77 7319.94,1554.83C7765.53,177.89 8920.46,-650.11 9350.26,-345.97" style="fill:none;stroke:white;stroke-width:8.33px;"/>
                <path d="M-1855.43,4217.32C-1855.43,4217.32 -1677.98,2602.21 -342.81,2051.56C992.35,1500.91 2304.99,1824.05 2750.58,447.11C3196.17,-929.83 3521.1,-761.11 3950.91,-456.969" style="fill:none;stroke:white;stroke-width:8.33px;"/>
                <path d="M7348.81,6914.22C7348.81,6914.22 7526.26,5299.11 8861.43,4748.46C10196.6,4197.81 11509.2,4520.95 11954.8,3144.01C12400.4,1767.07 12725.3,1935.79 13155.1,2239.93" style="fill:none;stroke:white;stroke-width:8.33px;"/>
                <path d="M1289.88,5211.89C1289.88,5211.89 607.987,3894.82 1255.35,3099.08C1902.72,2303.33 3267.08,2909.18 4536.97,1750.95C5806.86,592.73 5120.61,-12.8 7202.61,-349.41" style="fill:none;stroke:white;stroke-width:8.33px;"/>
                <path d="M6828.84,5465.07C6828.84,5465.07 6036.6,3961.2 7321.15,3450.97C8582.87,2949.81 9427.9,3493.73 9484.66,1373.91C9519.06,89.21 11652.3,-881.18 12194.5,-529.17" style="fill:none;stroke:white;stroke-width:8.33px;"/>
            </g>
            <path d="M-2297.95,4217.32C-2297.95,4217.32 -2120.5,2602.21 -785.33,2051.56C549.83,1500.91 1862.47,1824.05 2308.06,447.11C2753.65,-929.83 3078.58,-761.11 3508.39,-456.969" style="fill:none;stroke:black;stroke-width:8.33px;"/>
            <path d="M6906.29,6914.22C6906.29,6914.22 7083.74,5299.11 8418.91,4748.46C9754.07,4197.81 11066.7,4520.95 11512.3,3144.01C11957.9,1767.07 12282.8,1935.79 12712.6,2239.93" style="fill:none;stroke:black;stroke-width:8.33px;"/>
            <path d="M847.357,5211.89C847.357,5211.89 165.464,3894.82 812.829,3099.08C1460.19,2303.33 2824.56,2909.18 4094.45,1750.95C5364.34,592.73 4678.09,-12.8 6760.09,-349.41" style="fill:none;stroke:black;stroke-width:8.33px;"/>
            <path d="M6386.32,5465.07C6386.32,5465.07 5594.08,3961.2 6878.63,3450.97C8140.35,2949.81 8985.38,3493.73 9042.14,1373.91C9076.54,89.21 11209.8,-881.18 11752,-529.17" style="fill:none;stroke:black;stroke-width:8.33px;"/>
        </g>
    </g>
</svg>
